!!!COM: Scriabin, Alexander
!!!OTL@@FR: Enigme
!!!OTL@@EN: Enigme
!!!OPR@@FR: 3 Morceaux
!!!OPR@@EN: 3 Pieces
!!!OPS: 52
!!!ONM: 2
!!!ODT: 1907
!!!AGN: Miniature
**kern	**kern	**dynam
*staff2	*staff1	*staff1/2
*Ipiano	*Ipiano	*
*clefG2	*clefG2	*
*k[b-e-a-d-g-]	*k[b-e-a-d-g-]	*
*b-:	*b-:	*
*M3/8	*M3/8	*
[16g-	16r	.
=1	=1	=1
16g-LL]	16cc 16ee- 16aa-	.
16a-	16r	.
16b-	8r	.
16dd-	.	.
16ffJ	8r	.
32r	.	.
32bb-Jkk	.	.
=2	=2	=2
[4.gg-	[4.ee--	.
=3	=3	=3
4.gg-]	4.ee--]	.
=4	=4	=4
*M2/8	*M2/8	*
32g-KLL 32cc	32ffKLL 32bb-	.
16.e--JJ 16.a-	16.ccJJ 16.gg-	.
32g-KLL 32cc	32ffKLL 32bb-	.
[16.e--JJ [16.a-	[16.ccJJ [16.gg-	.
=5	=5	=5
4e--] 4a-]	4cc] 4gg-]	.
=6	=6	=6
16A- 16g- 16cc	20aa-LL	.
.	20aan	.
16r	.	.
.	20ccc	.
8r	.	.
.	20bb-	.
.	[20ddnJJ	.
*clefF4	*	*
=7	=7	=7
16Dn 16c 16f#X	20ddLL]	.
.	20dd#X	.
16r	.	.
.	20ff#X	.
8r	.	.
.	20een	.
.	[20g#XJJ	.
!!LO:LB:g=original
=8	=8	=8
16AA-X 16G-X 16c	20g#LL]	.
.	20an	.
16r	.	.
.	20cc	.
8r	.	.
.	20b-J	.
.	40r	.
.	40dnJkk	.
=9	=9	=9
4r	[4g-X	.
=10	=10	=10
4r	32g-KKL]	.
.	64r	.
.	64fKLL	.
.	32b-JJ	.
.	64r	.
.	64anJkkk	.
.	32ee-KKL	.
.	64r	.
.	64ddnKLL	.
.	32gg-JJ	.
.	64r	.
.	64ffJkkk	.
=11	=11	=11
8r	16bb-	.
.	16r	.
*clefG2	*	*
16r	8r	.
[16b-	.	.
=12	=12	=12
*M3/8	*M3/8	*
16b-LL]	16een 16ggn 16ccc	.
16cc	16r	.
16ddn	8r	.
16ff	.	.
16aanJ	8r	.
32r	.	.
32dddnJkk	.	.
=13	=13	=13
[4.bb-	[4.gg-X	.
=14	=14	=14
4.bb-]	4.gg-]	.
!!LO:LB:g=original
=15	=15	=15
*M2/8	*M2/8	*
32b-KLL 32een	32aanKLL 32dddn	.
16.g-JJ 16.cc	16.eenJJ 16.bb-	.
32b-KLL 32ee	32aaKLL 32ddd	.
[16.g-JJ [16.cc	[16.eeJJ [16.bb-	.
=16	=16	=16
4g-] 4cc]	4ee] 4bb-]	.
=17	=17	=17
16c 16b- 16een	20cccLL	.
.	20ccc#X	.
16r	.	.
.	20eeen	.
8r	.	.
.	20dddnJ	.
.	40r	.
.	40ff#XJkk	.
=18	=18	=18
8r	16bb-KL	.
.	32r	.
.	32aanJkk	.
16e-X 16dd- 16ggn	16ddd-XKL	.
16r	32r	.
.	32cccJkk	.
=19	=19	=19
16g-X 16ff-X 16bb-	16fff-XKL	.
16r	32r	.
.	32eee-Jkk	.
16an 16ggn 16ccc#X	16gggn	.
16r	16r	.
=20	=20	=20
16dn 16ccn 16ff#X	20dddnLL	.
.	20ddd#X	.
16r	.	.
.	20fff#X	.
8r	.	.
.	20eeenJ	.
.	40r	.
.	40gg#XJkk	.
!!LO:LB:g=original
=21	=21	=21
8r	16cccKL	.
.	32r	.
.	32bbnJkk	.
16fn 16ee- 16aan	16eee-X	.
16r	16r	.
=22	=22	=22
8r	16.r	.
.	32dddn	.
*^	*	*
16a-X 16gg-X 16ccc	16raaa	16ggg-X	.
16re	16a-	16r	.
=23	=23	=23	=23
*M3/8	*M3/8	*M3/8	*
8gL	4.gn	8r	.
8f	.	[4dd-X	.
8c-XJ	.	.	.
*v	*v	*	*
*clefF4	*	*
=24	=24	=24
8D-L	4dd-]	.
8DD-J	.	.
8r	[8ddn	.
=25	=25	=25
.	8qdd]	.
4.r	8ffL	.
.	8ee-	.
.	16r	.
.	16gnJk	.
=26	=26	=26
[4.GGn [4.F	[4.Bn [4.d#X [4.bn	.
!!LO:LB:g=original
=27	=27	=27
*^	*^	*
4.GG_ 4.F_	16AnLL	4.B_ 4.d#_ 4.b_	8raa	.
.	16fJJ	.	.	.
.	8A	.	16d#XLL	.
.	.	.	16bn	.
.	8rA	.	16b	.
.	.	.	16dd#XJJ	.
=28	=28	=28	=28	=28
4.GG] 4.F]	8r	4.B] 4.d#] 4.b]	16bbnLL	.
.	.	.	16dd#XJJ	.
.	16rc	.	16bn	.
.	16An	.	16rff	.
.	16fLL	.	8rff	.
.	16AJJ	.	.	.
*	*	*v	*v	*
=29	=29	=29	=29
8fL	[4.f	8r	.
8an	.	[4ee-	.
8c-XJ	.	.	.
=30	=30	=30	=30
8D-L	4f]	4ee-]	.
8DD-J	.	.	.
8rDD	8en	[8een	.
*v	*v	*	*
=31	=31	=31
.	8qee]	.
4.D- 4.c-X 4.e-X 4.an	8ggnL	.
.	8ff	.
.	16r	.
.	16anJk	.
=32	=32	=32
[4.AAn [4.Gn	[4.c#X [4.e#X [4.cc#X	.
!!LO:LB:g=original
=33	=33	=33
*^	*^	*
4.AA_ 4.G_	16BnLL	4.c#_ 4.e#_ 4.cc#_	8rgg	.
.	16gnJJ	.	.	.
.	8B	.	16e#XLL	.
.	.	.	16cc#X	.
.	8rB	.	16cc#	.
.	.	.	16ee#XJJ	.
=34	=34	=34	=34	=34
4.AA] 4.G]	8rB	4.c#] 4.e#] 4.cc#]	16ccc#XLL	.
.	.	.	16ee#XJJ	.
.	16rB	.	16cc#X	.
.	16Bn	.	16rgg	.
.	16gnLL	.	8rgg	.
.	16BJJ	.	.	.
*v	*v	*	*	*
*	*v	*v	*
=35	=35	=35
8qAAAn 8qAAn	.	.
16GnLL	4.r	.
16An	.	.
16Bn	.	.
16dn	.	.
16f#XJ	.	.
32r	.	.
32bnJkk	.	.
=36	=36	=36
*^	*	*
[4.e-	4.gn	8r	.
.	.	8aanL	.
.	.	8aa#XJ	.
=37	=37	=37	=37
4e-]	4gn	8ccc#XL	.
.	.	8.bbn	.
8r	8r	.	.
.	.	16ee-Jk	.
=38	=38	=38	=38
*	*	*^	*
[4.E- [4.d- 4.f	4.ryy	[4.gn [4.bn [4.ggn	4.ryy	.
=39	=39	=39	=39	=39
4.E-_ 4.d-_	16fLL	4.g_ 4.b_ 4.gg_	8rddd	.
.	16dd-JJ	.	.	.
.	16f	.	16bnLL	.
.	16rf	.	16ggn	.
.	8rf	.	16gg	.
.	.	.	16bbnJJ	.
!!LO:LB:g=original
=40	=40	=40	=40	=40
4.E-] 4.d-]	8ra	4.g] 4.b] 4.gg]	16gggnLL	.
.	.	.	16bbnJJ	.
.	16rf	.	16ggn	.
.	16f	.	16raa	.
.	16dd-LL	.	8raa	.
.	16fJJ	.	.	.
=41	=41	=41	=41	=41
[4.BBn [4.An 4.c#X	4.ryy	[4.f##X 4.an [4.dd#X [4.ff##X	4.ryy	.
=42	=42	=42	=42	=42
4.BB_ 4.A_	16c#XLL	4.f##_ 4.dd#_ 4.ff##_	8r	.
.	16anJJ	.	.	.
.	16c#	.	16f##XLL 16dd#X	.
.	16rc	.	16ff##X	.
.	8rc	.	16ff##	.
.	.	.	16ddd#XJJ	.
=43	=43	=43	=43	=43
4.BB_ 4.A_	8r	4.f##_ 4.dd#_ 4.ff##_	16fff##XLL	.
.	.	.	16ddd#XJJ	.
.	16re	.	16ff##X	.
.	16c#X	.	16raa	.
.	16anLL	.	8raa	.
.	16c#JJ	.	.	.
=44	=44	=44	=44	=44
4.BB_ 4.A_	4.ryy	4.f##_ 4.dd#_ 4.ff##_	4.ryy	.
=45	=45	=45	=45	=45
4.BB_ 4.A_	16c#XLL	4.f##_ 4.dd#_ 4.ff##_	8r	.
.	16anJJ	.	.	.
.	16c#	.	16f##XLL 16dd#X	.
.	16rc	.	16ff##X	.
.	8rc	.	16ff##	.
.	.	.	16ddd#XJJ	.
=46	=46	=46	=46	=46
4.BB] 4.A]	4.ryy	4.f##] 4.dd#] 4.ff##]	8fff##X	.
.	.	.	8rccc	.
.	.	.	8rccc	.
*v	*v	*	*	*
*	*v	*v	*
!!LO:LB:g=original
=47	=47	=47
8qAAA-X 8qAA-X	.	.
56%3G-LL	16cn 16e- 16a-X	.
56%3A-	.	.
.	16r	.
56%3B-X	.	.
.	8r	.
56%3d-X	.	.
56%3fn	.	.
.	8r	.
*clefG2	*	*
56%3b-	.	.
[56%3g-JJ	.	.
=48	=48	=48
56%3g-LL]	16cc 16ee- 16aa-	.
56%3a-	.	.
.	16r	.
56%3b-	.	.
.	8r	.
56%3dd-	.	.
56%3ff	.	.
.	8r	.
56%3bb-	.	.
[56%3gg-JJ	.	.
=49	=49	=49
16gg-LL]	16ccc 16eee- 16aaa-	.
16aa-	16r	.
16bb-	8r	.
16ddd-	.	.
16fffJ	8r	.
32r	.	.
32bbb-Jkk	.	.
=50	=50	=50
[4.eee--	[4.ggg-	.
=51	=51	=51
4.eee--]	4.ggg-]	.
!!LO:LB:g=original
=52	=52	=52
4.r	16ggg-LL	.
.	16fff-X	.
.	16eee--	.
.	16cccJJ	.
.	8r	.
=53	=53	=53
*M2/8	*M2/8	*
32g-KLL 32cc	32ffnKLL 32bb-	.
16.e--JJ 16.a-	16.ccJJ 16.gg-	.
32g-KLL 32cc	32ffKLL 32bb-	.
[16.e--JJ [16.a-	[16.ccJJ [16.gg-	.
=54	=54	=54
4e--] 4a-]	4cc] 4gg-]	.
=55	=55	=55
16A- 16g- 16cc	20aa-LL	.
.	20aan	.
16r	.	.
.	20ccc	.
8r	.	.
.	20bb-	.
.	[20ddnJJ	.
*clefF4	*	*
=56	=56	=56
16Dn 16c 16f#X	20ddLL]	.
.	20dd#X	.
16r	.	.
.	20ff#X	.
8r	.	.
.	20een	.
.	[20g#XJJ	.
!!LO:LB:g=original
=57	=57	=57
16AA-X 16G-X 16c	20g#LL]	.
.	20an	.
16r	.	.
.	20cc	.
8r	.	.
.	20b-J	.
.	40r	.
.	40dnJkk	.
=58	=58	=58
4r	[4g-X	.
=59	=59	=59
4r	32g-KKL]	.
.	64r	.
.	64fKLL	.
.	32b-JJ	.
.	64r	.
.	64anJkkk	.
.	32ee-KKL	.
.	64r	.
.	64ddnKLL	.
.	32gg-JJ	.
.	64r	.
.	64ffJkkk	.
=60	=60	=60
4r	16bb-	.
.	16r	.
.	8r	.
*clefG2	*	*
=61	=61	=61
16r	16r	.
*	*8va	*
16cc 16ee-- 16gg- 16bb-	64cccLLLL	.
.	64fff-X	.
.	64ggg-	.
.	64aaa-JJJJ	.
8r	16bbb-	.
*	*X8va	*
.	16r	.
=62	=62	=62
4r	4r	.
==	==	==
*-	*-	*-
!!!filter: flipper -a
!!!system-decoration: {(*)}
!!!ENC: Bryan Jacob Bell
!!!END: November 2021 to April 2022
!!!PED: Günter Philipp
!!!PTL: Ausgewählte Klavierwerke (Edition Peters)
